icons/tv-alt-varB.svg

<svg width="24" height="24" viewBox="0 0 24 24" fill="none" xmlns="http://www.w3.org/2000/svg">
<path fill-rule="evenodd" clip-rule="evenodd" d="M7 7.25C5.21421 7.25 3.75 8.71421 3.75 10.5V16.5C3.75 18.2858 5.21421 19.75 7 19.75H14.75V7.25H7ZM2.25 10.5C2.25 7.88579 4.38579 5.75 7 5.75H16.25V21.25H7C4.38579 21.25 2.25 19.1142 2.25 16.5V10.5Z" fill="black"/>
<path d="M21 10.5V16.5C21 18.7 19.2 20.5 17 20.5H15.5V6.5H17C19.2 6.5 21 8.2 21 10.5Z" fill="black"/>
<path fill-rule="evenodd" clip-rule="evenodd" d="M14.75 5.75H17C19.6019 5.75 21.75 7.77354 21.75 10.5V16.5C21.75 19.1142 19.6142 21.25 17 21.25H14.75V5.75ZM16.25 7.25V19.75H17C18.7858 19.75 20.25 18.2858 20.25 16.5V10.5C20.25 8.62646 18.7981 7.25 17 7.25H16.25Z" fill="black"/>
<path fill-rule="evenodd" clip-rule="evenodd" d="M8.66962 2.96967C8.96251 2.67678 9.43739 2.67678 9.73028 2.96967L11.85 5.08934L13.9696 2.96967C14.2625 2.67678 14.7374 2.67678 15.0303 2.96967C15.3232 3.26256 15.3232 3.73744 15.0303 4.03033L12.6303 6.43033C12.4816 6.57901 12.3105 6.64576 12.1997 6.67739C12.0789 6.71192 11.9583 6.725 11.85 6.725C11.7416 6.725 11.621 6.71192 11.5002 6.67739C11.3894 6.64576 11.2183 6.57901 11.0696 6.43033L8.66962 4.03033C8.37673 3.73744 8.37673 3.26256 8.66962 2.96967Z" fill="black"/>
</svg>

<svg xmlns="http://www.w3.org/2000/svg" fill="none" viewBox="0 0 24 24">
  <path fill="#000" fill-rule="evenodd" d="M7 7.25a3.262 3.262 0 0 0-3.25 3.25v6A3.262 3.262 0 0 0 7 19.75h7.75V7.25H7ZM2.25 10.5A4.762 4.762 0 0 1 7 5.75h9.25v15.5H7a4.762 4.762 0 0 1-4.75-4.75v-6Z" clip-rule="evenodd"/>
  <path fill="#000" d="M21 10.5v6c0 2.2-1.8 4-4 4h-1.5v-14H17c2.2 0 4 1.7 4 4Z"/>
  <path fill="#000" fill-rule="evenodd" d="M14.75 5.75H17c2.602 0 4.75 2.024 4.75 4.75v6A4.762 4.762 0 0 1 17 21.25h-2.25V5.75Zm1.5 1.5v12.5H17a3.262 3.262 0 0 0 3.25-3.25v-6c0-1.874-1.452-3.25-3.25-3.25h-.75ZM8.67 2.97a.75.75 0 0 1 1.06 0l2.12 2.12 2.12-2.12a.75.75 0 0 1 1.06 1.06l-2.4 2.4a.991.991 0 0 1-.43.247 1.28 1.28 0 0 1-.7 0 .991.991 0 0 1-.43-.247l-2.4-2.4a.75.75 0 0 1 0-1.06Z" clip-rule="evenodd"/>
</svg>
